img/guarantee/icon5.svg

<svg width="57" height="57" viewBox="0 0 57 57" fill="none" xmlns="http://www.w3.org/2000/svg">
<circle cx="28.5" cy="28.5" r="28" stroke="#009CA1"/>
<path fill-rule="evenodd" clip-rule="evenodd" d="M43.1138 14.298V23.2265H42.1426V14.9712H33.8874V14H42.8159L43.1138 14.298ZM27.0889 14.9712H18.8337V23.2265H17.8625V14.298L18.1604 14H27.0889V14.9712ZM31.2166 16.9749C34.9511 17.4877 38.0463 20.0339 39.2217 23.5603C39.5907 24.6674 39.678 25.2537 39.678 26.6257C39.678 27.6889 39.6581 27.9628 39.5409 28.5074C39.3437 29.4244 39.0952 30.1351 38.6815 30.9658C38.202 31.9284 37.6396 32.7069 36.8617 33.4848C35.4972 34.8493 33.8309 35.7463 31.8843 36.1643C31.3404 36.2811 31.0643 36.3012 30.0025 36.3013C28.8838 36.3015 28.681 36.2851 27.9932 36.139C26.8438 35.8948 25.6401 35.4379 24.8247 34.9362L24.5203 34.7489L22.4512 36.8179L22.8276 37.21C23.4508 37.8589 23.6548 37.557 20.3967 40.8083C18.0159 43.1841 17.5337 43.6375 17.2236 43.7919C16.7214 44.0419 16.4139 44.115 15.8694 44.1138C14.252 44.1103 13.0036 42.8619 13 41.2445C12.9989 40.6999 13.0719 40.3924 13.322 39.8902C13.4764 39.5801 13.9298 39.0979 16.3056 36.7171C19.5569 33.459 19.2549 33.663 19.9039 34.2861L20.2959 34.6626L22.3038 32.6548L21.901 32.04C21.1988 30.9683 20.723 29.7948 20.4577 28.4805C20.2622 27.512 20.2656 25.6719 20.4646 24.744C20.6609 23.8284 20.9094 23.1171 21.3236 22.2856C21.8031 21.323 22.3655 20.5445 23.1434 19.7665C24.5072 18.4028 26.1785 17.5005 28.0905 17.0961C28.7799 16.9503 30.5402 16.882 31.2166 16.9749ZM30.822 17.9229C34.3569 18.3072 37.2422 20.635 38.3081 23.9625C38.6201 24.9362 38.7066 25.5149 38.7066 26.6257C38.7066 27.7365 38.6201 28.3152 38.3081 29.2889C37.3262 32.3542 34.7747 34.6057 31.6011 35.2074C29.4855 35.6084 27.0753 35.1579 25.224 34.0154C24.3295 33.4633 24.4621 33.4118 22.9892 34.8834L21.7474 36.1241L20.9911 35.3679L22.219 34.1346C23.678 32.6693 23.6408 32.7589 23.0928 32.0317C19.9829 27.9045 20.9782 22.0716 25.268 19.2843C26.1292 18.7247 27.3398 18.2471 28.4243 18.0389C28.9357 17.9408 30.3546 17.8721 30.822 17.9229ZM30.8827 18.8932C31.9214 19.0455 32.6987 19.2872 33.5459 19.7213C35.0772 20.5058 36.2382 21.6985 36.9878 23.2568C37.8399 25.0283 37.9993 26.8731 37.4678 28.8109C37.2933 29.4473 36.6999 30.6336 36.258 31.2296C35.1035 32.7866 33.4484 33.8399 31.5014 34.2567C30.8057 34.4057 29.1916 34.4061 28.5037 34.2576C25.3668 33.5804 23.0378 31.2571 22.3742 28.1432C22.2225 27.4313 22.2209 25.8262 22.3711 25.1269C23.0406 22.0112 25.3406 19.6959 28.4547 19.0029C28.8663 18.9112 30.5019 18.8374 30.8827 18.8932ZM31.0475 19.9214C33.6457 20.326 35.7853 22.2178 36.5228 24.7628C37.4399 27.9276 35.8852 31.3577 32.8993 32.757C29.1017 34.5366 24.6491 32.515 23.4799 28.4803C22.8084 26.163 23.4668 23.5945 25.1769 21.8602C26.6991 20.3163 28.9051 19.5878 31.0475 19.9214ZM30.822 23.7751C31.8195 23.9306 32.3975 24.2009 34.342 25.421C36.3342 26.671 36.3353 26.5825 34.3112 27.8572C31.9604 29.3377 31.5378 29.4988 30.0025 29.4988C28.4673 29.4988 28.0447 29.3377 25.6939 27.8572C23.6494 26.5697 23.6426 26.6863 25.8425 25.3109C27.9026 24.0229 28.4712 23.7973 29.7901 23.7449C30.1573 23.7303 30.6217 23.7439 30.822 23.7751ZM31.3987 24.9192C31.5823 24.9785 31.8554 25.0891 32.0057 25.1649C32.3566 25.3421 34.3712 26.5856 34.3721 26.6257C34.3732 26.6729 32.4439 27.8648 32.036 28.0688C31.6484 28.2627 31.0911 28.4467 30.8916 28.4467C30.8067 28.4467 30.8571 28.3895 31.0613 28.2543C32.2275 27.4819 32.2275 25.7695 31.0613 24.997C30.817 24.8353 30.7942 24.8052 30.9178 24.8079C30.9986 24.8097 31.215 24.8598 31.3987 24.9192ZM28.9438 24.997C27.7776 25.7695 27.7776 27.4819 28.9438 28.2543C29.1479 28.3895 29.1984 28.4467 29.1135 28.4467C28.9162 28.4467 28.3588 28.2645 27.9742 28.0742C27.5767 27.8776 25.6315 26.6738 25.6336 26.6257C25.6357 26.5779 27.5646 25.3867 27.9691 25.1834C28.3558 24.9891 28.9131 24.8047 29.1135 24.8047C29.1984 24.8047 29.1479 24.8619 28.9438 24.997ZM30.4298 25.7911C30.7213 25.9381 30.9738 26.3254 30.9738 26.6257C30.9738 26.926 30.7213 27.3133 30.4298 27.4603C30.2808 27.5355 30.0886 27.5969 30.0025 27.5969C29.9165 27.5969 29.7243 27.5355 29.5753 27.4603C29.2838 27.3133 29.0313 26.926 29.0313 26.6257C29.0313 26.3254 29.2838 25.9381 29.5753 25.7911C29.7243 25.7159 29.9165 25.6545 30.0025 25.6545C30.0886 25.6545 30.2808 25.7159 30.4298 25.7911ZM43.1138 38.9534L42.8159 39.2514H33.8874V38.2802H42.1426V30.0249H43.1138V38.9534ZM20.6852 36.4593L22.0197 37.7948L19.5313 40.2853C16.6927 43.1265 16.7172 43.1075 15.8897 43.1021C15.3135 43.0983 14.9383 42.9464 14.5529 42.561C14.1776 42.1857 14.0175 41.7987 14.0123 41.2545C14.0042 40.402 13.9278 40.502 16.761 37.658C18.1496 36.2642 19.3003 35.1237 19.3181 35.1237C19.336 35.1237 19.9512 35.7247 20.6852 36.4593Z" fill="url(#paint0_linear_3132_3812)"/>
<defs>
<linearGradient id="paint0_linear_3132_3812" x1="13" y1="14" x2="43.7161" y2="44.8667" gradientUnits="userSpaceOnUse">
<stop stop-color="#0ABD92"/>
<stop offset="1" stop-color="#009DB8"/>
</linearGradient>
</defs>
</svg>

<svg width="57" height="57" fill="none" xmlns="http://www.w3.org/2000/svg"><circle cx="28.5" cy="28.5" r="28" stroke="#009CA1"/><path fill-rule="evenodd" clip-rule="evenodd" d="M43.114 14.298v8.929h-.971V14.97h-8.256V14h8.929l.298.298zm-16.025.673h-8.255v8.256h-.971v-8.929L18.16 14h8.929v.971zm4.128 2.004c3.734.513 6.83 3.059 8.005 6.585.369 1.107.456 1.694.456 3.066 0 1.063-.02 1.337-.137 1.881a9.753 9.753 0 01-.86 2.459 9.261 9.261 0 01-1.82 2.519c-1.364 1.364-3.03 2.261-4.977 2.68-.544.116-.82.136-1.881.136-1.12 0-1.322-.016-2.01-.162-1.15-.244-2.353-.701-3.168-1.203l-.305-.187-2.069 2.069.377.392c.623.649.827.347-2.431 3.598-2.381 2.376-2.863 2.83-3.173 2.984-.503.25-.81.323-1.355.322-1.617-.004-2.865-1.252-2.869-2.87-.001-.544.072-.852.322-1.354.154-.31.608-.792 2.984-3.173 3.25-3.258 2.949-3.054 3.598-2.43l.392.376 2.008-2.008-.403-.615a10.006 10.006 0 01-1.443-3.56c-.196-.968-.192-2.808.007-3.736a9.727 9.727 0 01.859-2.458 9.263 9.263 0 011.82-2.52 9.745 9.745 0 014.947-2.67c.689-.146 2.45-.214 3.126-.121zm-.395.948c3.535.384 6.42 2.712 7.486 6.04.312.973.399 1.552.399 2.663 0 1.11-.087 1.69-.399 2.663a8.707 8.707 0 01-6.707 5.918c-2.116.401-4.526-.05-6.377-1.192-.895-.552-.762-.603-2.235.868l-1.242 1.241-.756-.756 1.228-1.233c1.459-1.466 1.422-1.376.874-2.103-3.11-4.127-2.115-9.96 2.175-12.748.861-.56 2.072-1.037 3.156-1.245.512-.098 1.93-.167 2.398-.116zm.06.97c1.04.152 1.817.394 2.664.828a7.585 7.585 0 013.442 3.536c.852 1.771 1.011 3.616.48 5.554-.175.636-.768 1.823-1.21 2.419-1.155 1.557-2.81 2.61-4.757 3.027-.695.149-2.31.15-2.997 0-3.137-.677-5.466-3-6.13-6.114-.151-.712-.153-2.317-.003-3.016.67-3.116 2.97-5.431 6.084-6.124.411-.092 2.047-.166 2.428-.11zm.165 1.028a6.81 6.81 0 015.476 4.842c.917 3.165-.638 6.595-3.624 7.994a6.787 6.787 0 01-9.42-4.277c-.67-2.317-.012-4.886 1.698-6.62a6.814 6.814 0 015.87-1.939zm-.225 3.854c.998.156 1.576.426 3.52 1.646 1.992 1.25 1.993 1.162-.03 2.436-2.352 1.48-2.774 1.642-4.31 1.642-1.535 0-1.957-.161-4.308-1.642-2.045-1.287-2.051-1.17.149-2.546 2.06-1.288 2.628-1.514 3.947-1.566a6.92 6.92 0 011.032.03zm.577 1.144c.183.06.456.17.607.246.35.177 2.365 1.42 2.366 1.46.001.048-1.928 1.24-2.336 1.444-.388.194-.945.378-1.144.378-.085 0-.035-.057.17-.193a1.954 1.954 0 000-3.257c-.245-.162-.268-.192-.144-.19.08.003.297.053.48.112zm-2.455.078a1.954 1.954 0 000 3.257c.204.136.254.193.17.193-.198 0-.755-.182-1.14-.373-.397-.196-2.343-1.4-2.34-1.448.002-.048 1.93-1.24 2.335-1.443.387-.194.944-.378 1.144-.378.085 0 .035.057-.17.192zm1.486.794c.291.147.544.534.544.835 0 .3-.253.687-.544.834-.15.075-.341.137-.427.137-.087 0-.279-.062-.428-.137-.291-.147-.544-.534-.544-.834 0-.3.253-.688.544-.835.15-.075.341-.137.428-.137.086 0 .278.062.427.137zm12.684 13.162l-.298.298h-8.929v-.97h8.256v-8.256h.97v8.928zM20.685 36.46l1.335 1.336-2.489 2.49c-2.838 2.842-2.814 2.823-3.641 2.817-.577-.004-.952-.156-1.337-.541-.375-.375-.536-.762-.54-1.306-.009-.853-.085-.753 2.748-3.597 1.389-1.394 2.54-2.534 2.557-2.534.018 0 .633.6 1.367 1.335z" fill="url(#paint0_linear_3132_3812)"/><defs><linearGradient id="paint0_linear_3132_3812" x1="13" y1="14" x2="43.716" y2="44.867" gradientUnits="userSpaceOnUse"><stop stop-color="#0ABD92"/><stop offset="1" stop-color="#009DB8"/></linearGradient></defs></svg>
